X: 46
T: WELCOME TO ALL STRANGERS
B: "Old English Country Dances", Frank Kidson ed., William Reeves pub., London 1890
N: The second part has an open repeat (:) at the beginning, but no close repeat at the end.
N: One of these is a typo, but it's not obvious which.
Z: 2010-9-26 John Chambers <jc:trillian.mit.edu>
M: 6/8
L: 1/8
K: Dm
D | FGA D2E | ^C2D ECA, | FGA DEF | A,D^C D2 :|
|: e | fed fga | g2f edc | fed fed | ^c>de A3 |
AGF EFD | fed ^c>de | AGF EFE | A,D^C D2 |]


%%sep 1 1 500

%%sep 1 1 500

